X: 32195
T: Petticoat Loose
R: jig
M: 6/8
K: Bminor
B|:d2 e f2 d|e2 c dcA|B2 f fdB|BAB fdB|
d2 e f2 d|ecc dcB|A2 e ecA|1 cde ecA:|2 cde aec||
d2 g f/g/af|ege dcA|B2 f fdB|BAB fdB|
d2 g f/g/af|ege dcB|A2 e ecA|cde ecA:|

